assets/Call me hand/Medium-Light/Flat/call_me_hand_flat_medium-light.svg

<svg width="32" height="32" viewBox="0 0 32 32" fill="none" xmlns="http://www.w3.org/2000/svg">
<path d="M24.4235 24.18H26.3438C27.5837 24.18 28.9844 25.7288 28.9844 26.9688C28.9844 28.2088 27.9531 30.0313 25.9375 30.0313H14.25C8.375 30.0313 2 28.0626 2 20.3126C2 16.4688 3.84377 12.4063 7.03127 10.6251C7.16825 10.5485 7.30426 10.4727 7.43927 10.3975C10.2058 8.85608 12.5528 7.5484 14.1875 4.68756C14.9475 3.36756 16.5909 1.01643 19.1406 2.48444C20.4606 3.24444 21.0898 5.42194 19.6094 7.40631C18.5347 8.84673 18.3616 9.04605 18.2771 9.27771C18.2452 9.36519 18.226 9.45728 18.1756 9.62257V9.67977C18.1849 9.67972 18.1941 9.67969 18.2034 9.67969H21.5467C24.0313 9.67969 25 10.8111 25 12.4627C25 13.5219 24.615 14.4525 23.6748 14.9838C24.6056 15.4527 25 16.2902 25 17.3383C25 18.4177 24.5958 19.3831 23.6042 19.9182C24.5857 20.3799 25 21.2328 25 22.307C25 23.0169 24.8252 23.6687 24.4235 24.18Z" fill="#EEBFAA"/>
<path d="M16.2849 10.1793C14.937 10.4395 13 11.1918 13 13.0312C13 13.1235 13.0026 13.2128 13.0075 13.2993L13.0026 13.2997L13.0027 13.3014L13.0037 13.3116C13.0045 13.3213 13.0058 13.3368 13.0074 13.3578C13.0105 13.3998 13.0146 13.4637 13.0184 13.5477C13.026 13.7156 13.0322 13.963 13.0256 14.2736C13.0124 14.8955 12.9483 15.767 12.7447 16.7588C12.3368 18.7452 11.376 21.1853 9.17293 23.0906C8.96407 23.2712 8.94119 23.587 9.12183 23.7958C9.30247 24.0047 9.61822 24.0276 9.82708 23.847C11.5578 22.3501 12.5825 20.5598 13.1854 18.8851C13.3603 19.4019 13.6519 19.8016 14.0313 19.9218C13.6042 20.0677 13 21.0374 13 22.6874C13 25.2181 15.0702 26.0042 17.2031 26.0154L17.25 26.0156H22.904C23.7383 26.0156 24.5307 25.6501 25.0724 25.0156C25.8844 25.0156 27.8301 25.1528 28.8401 26.2323C28.4516 25.1903 27.3453 24.1799 26.3438 24.1799H24.4235C23.8957 24.8518 22.9762 25.2812 21.5467 25.2812H18.2034C15.8125 25.2812 15.0156 23.9496 15.0156 22.307C15.0156 21.814 15.1352 21.3677 15.3529 20.9844H24.7235C24.5193 20.5708 24.1964 20.2306 23.7361 19.9844H16.3728C16.3763 19.9824 16.3798 19.9804 16.3833 19.9785C15.387 19.4578 15.0156 18.4596 15.0156 17.3382C15.0156 16.8586 15.1288 16.4231 15.3354 16.0469H24.7386C24.5437 15.6366 24.2343 15.2967 23.7929 15.0469H16.3188C16.3322 15.0389 16.3457 15.0311 16.3593 15.0233C15.4413 14.4995 15.0156 13.5487 15.0156 12.4626C15.0156 11.4688 15.4966 10.6633 16.2849 10.1793Z" fill="#D6A089"/>
</svg>

<svg xmlns="http://www.w3.org/2000/svg" width="32" height="32" fill="none"><path fill="#EEBFAA" d="M24.424 24.18h1.92c1.24 0 2.64 1.549 2.64 2.789 0 1.24-1.03 3.062-3.047 3.062H14.25C8.375 30.031 2 28.063 2 20.313c0-3.844 1.844-7.907 5.031-9.688l.408-.227c2.767-1.542 5.114-2.85 6.748-5.71.76-1.32 2.404-3.672 4.954-2.204 1.32.76 1.949 2.938.468 4.922-1.074 1.44-1.247 1.64-1.332 1.872-.032.087-.051.18-.101.345v.057h3.371C24.03 9.68 25 10.81 25 12.463c0 1.059-.385 1.99-1.325 2.52.93.47 1.325 1.307 1.325 2.355 0 1.08-.404 2.045-1.396 2.58.982.462 1.396 1.315 1.396 2.389 0 .71-.175 1.362-.576 1.873Z"/><path fill="#D6A089" d="M16.285 10.18C14.937 10.44 13 11.191 13 13.03c0 .092.003.182.008.268h-.005v.012a6.781 6.781 0 0 1 .015.236c.008.169.014.416.008.727a13.958 13.958 0 0 1-.281 2.485c-.408 1.986-1.369 4.426-3.572 6.332a.5.5 0 1 0 .654.756c1.73-1.497 2.755-3.287 3.358-4.962.175.517.467.917.846 1.037-.427.146-1.031 1.115-1.031 2.765 0 2.531 2.07 3.317 4.203 3.328h5.701c.834 0 1.627-.365 2.168-1 .812 0 2.758.138 3.768 1.217-.388-1.042-1.495-2.052-2.496-2.052h-1.92c-.528.672-1.448 1.101-2.877 1.101h-3.344c-2.39 0-3.187-1.331-3.187-2.974 0-.493.12-.94.337-1.323h9.37a2.25 2.25 0 0 0-.987-1h-7.363a.555.555 0 0 1 .01-.006c-.996-.52-1.367-1.518-1.367-2.64 0-.48.113-.915.32-1.291h9.403a2.235 2.235 0 0 0-.946-1h-7.474l.04-.024c-.918-.524-1.343-1.474-1.343-2.56 0-.994.48-1.8 1.269-2.284Z"/></svg>
